X:1
T:You'll git dar in de mornin'!
T:You'll git dar in de mornin'!
T:Frank Lebby Stanton
T:Henry Thacker (“Harry”) Burleigh
T:Public Domain
C:Harry T. Burleigh
Z:Frank Lebby Stanton
Z:Public Domain
%%score 1 { ( 2 5 ) | ( 3 4 ) }
L:1/8
Q:1/4=114
M:4/4
K:F
V:1 treble nm="Voice."
V:2 treble nm="Piano."
V:5 treble 
V:3 bass 
V:4 bass 
V:1
"^Rather quickly." z8 | z8 | (f2 d2 c A A F | A2 G2 (A F2)) z | (f2 d2 c A A3/2 F/ | G =B3 c2) z2 | %6
w: ||1. Keep on look\- in' fo’ de|bright, bright skies; *|Keep on hop\- in' dat de|sun 'll rise,|
w: ||2. Keep on plow\- 'in when you’ve|miss’d de crops; *|Keep on danc\- in' when de|fid\- dle stops;|
 (f2 d2 c A A3/2 G/ | F2 G2 (F<!fermata!D)) (D C | F2 A2 (GF) D2 | F4 F2) z2!D.C.! |] %10
w: Keep on sing\- in' when de|whole world sighs, * An’ you’ll|git dar in * de|mor\- nin’!|
w: Keep on faith\- ful till de|cur\- tain drops, * An’ you’ll|git dar in * de|mor\- nin'!|
V:2
!f! ([FA][FA] [FB]2 [FA]2 [DF]2 | [FA][FA] [FB]2 [FA]2 [DF]2) | [FA]2 [FB]2 [FA]2 [Fc]2 | %3
w: |||
 [F=B]2 [E_B]2 [FA]2 [FA][FA] | [FA]2 [FB]2 [FA]2!<(! [Fc]2 | %5
w: ||
 [Fd]2!<)!!>(! [F=B]2 [EAc]2 [G_B][GB]!>)! | [FA]2 [FB]2!<(!!<(! [FA]2 [^CG]2!<)!!<)! | %7
w: ||
!>(!!>(! [DF]2 [_EF]2 !fermata![DF]2!>)!!>)! DC | %8
w: * * * very slowly *|
!<(!!<(! [CF]2 [=B,A]2 G!<)!!<)!F!>(!!>(! [_B,=D]2 | [B,F-]4 [A,F]2!>)!!>)! z2 |] %10
w: ||
V:3
 CC D2 C2 B,2 | CC D2 C2 B,2 | [F,C]2 [F,D]2 [F,C]2 [A,C]2 | [G,D]2 C2 [F,C]2 [F,C][F,C] | %4
 [F,C]2 [F,D]2 [F,C]2 [A,C]2 | [G,=B,]2 [G,D]2 C2 [C,C][C,C] | [F,C]2 [F,D]2 [F,C]2 [E,A,]2 | %7
 [D,A,]2 [C,A,]2 !fermata![_B,,^G,]2 [C,=E,]2 | [A,,F,]2 [D,F,]2 [_D,F,]2 [C,G,]2 | %9
 D,2 _D,2 C,2 z2 |] %10
V:4
 F,8- | F,8 | x8 | x2 C2 x4 | x8 | x4 C2 x2 | x8 | x8 | x8 | F,,4- F,,2 x2 |] %10
V:5
 x8 | x8 | x8 | x8 | x8 | x8 | x8 | x6 B,2 | x4 _B,2 z2 | x8 |] %10

